packages/kaspersky-hexa-ui-icons/src/iconsSVGs/24/Cancel1.svg

<svg width="24" height="24" viewBox="0 0 24 24" fill="none" xmlns="http://www.w3.org/2000/svg">
<path d="M8.79533 8.79546C9.18586 8.40493 9.81902 8.40493 10.2095 8.79546L12 10.5859L13.7905 8.79546C14.181 8.40493 14.8141 8.40493 15.2047 8.79546C15.5952 9.18598 15.5952 9.81915 15.2047 10.2097L13.4142 12.0001L15.2045 13.7904C15.595 14.1809 15.595 14.8141 15.2045 15.2046C14.814 15.5951 14.1808 15.5951 13.7903 15.2046L12 13.4143L10.2097 15.2046C9.81921 15.5951 9.18604 15.5951 8.79552 15.2046C8.40499 14.8141 8.40499 14.1809 8.79552 13.7904L10.5858 12.0001L8.79533 10.2097C8.40481 9.81915 8.40481 9.18598 8.79533 8.79546Z" fill="black"/>
<path fill-rule="evenodd" clip-rule="evenodd" d="M2 12C2 6.47715 6.47715 2 12 2C17.5228 2 22 6.47715 22 12C22 17.5228 17.5228 22 12 22C6.47715 22 2 17.5228 2 12ZM12 4C7.58172 4 4 7.58172 4 12C4 16.4183 7.58172 20 12 20C16.4183 20 20 16.4183 20 12C20 7.58172 16.4183 4 12 4Z" fill="black"/>
</svg>

<svg xmlns="http://www.w3.org/2000/svg" width="24" height="24" fill="none" viewBox="0 0 24 24"><path fill="#000" d="M8.7953 8.7955c.3906-.3906 1.0237-.3906 1.4142 0L12 10.5859l1.7905-1.7904c.3905-.3906 1.0236-.3906 1.4142 0s.3905 1.0237 0 1.4142l-1.7905 1.7904 1.7903 1.7903c.3905.3905.3905 1.0237 0 1.4142s-1.0237.3905-1.4142 0L12 13.4143l-1.7903 1.7903c-.3905.3905-1.0237.3905-1.4142 0s-.3905-1.0237 0-1.4142l1.7903-1.7903-1.7905-1.7904c-.3905-.3905-.3905-1.0237 0-1.4142"/><path fill="#000" fill-rule="evenodd" d="M2 12C2 6.4772 6.4772 2 12 2s10 4.4772 10 10-4.4772 10-10 10S2 17.5228 2 12m10-8c-4.4183 0-8 3.5817-8 8s3.5817 8 8 8 8-3.5817 8-8-3.5817-8-8-8" clip-rule="evenodd"/></svg>
